; generated by PrusaSlicer 2.4.0+win64 on 2022-05-05 at 14:45:43 UTC

; 

; external perimeters extrusion width = 0.25mm
; perimeters extrusion width = 0.25mm
; infill extrusion width = 0.50mm
; solid infill extrusion width = 0.25mm
; top infill extrusion width = 0.25mm
; first layer extrusion width = 0.25mm

M73 P0 R15
M73 Q0 S15
M201 X800 Y800 Z200 E4000 ; sets maximum accelerations, mm/sec^2
M203 X200 Y200 Z12 E120 ; sets maximum feedrates, mm/sec
M204 P800 R800 T800 ; sets acceleration (P, T) and retract acceleration (R), mm/sec^2
M205 X6.00 Y6.00 Z0.40 E4.50 ; sets the jerk limits, mm/sec
M205 S0 T0 ; sets the minimum extruding and travel feed rate, mm/sec
M107
;TYPE:Custom
M862.3 P "MK3SMMU2S" ; printer model check
M862.1 P0.25 ; nozzle diameter check
M115 U3.9.1 ; tell printer latest fw version
G90 ; use absolute coordinates
M83 ; extruder relative mode
M104 S210 ; set extruder temp
M140 S60 ; set bed temp
M190 S60 ; wait for bed temp
M109 S210 ; wait for extruder temp
G28 W ; home all without mesh bed level
G80 ; mesh bed leveling

;Skelestruder Code Start - Currently managed by custom Firmware
;M350 E16 ; 16 Microsteps instead of 32
;M92 E492 ; 492 steps/mm instead of 280  Flow Test result was 492
;M221 S95 ; Set flow to tested Stable 95%
;Skelestruder Code End

; Send the filament type to the MMU2.0 unit.
; E stands for extruder number, F stands for filament type (0: default; 1:flex; 2: PVA)
M403 E0 F0
M403 E1 F0
M403 E2 F0
M403 E3 F0
M403 E4 F0


;go outside print area
G1 Y-3.0 F1000.0
G1 Z0.4 F1000.0
; select extruder
T0
; initial load
G1 X55.0 E29.0 F1073.0
G1 X5.0 E15.0 F1800.0
G1 X55.0 E8.0 F2000.0
G1 Z0.3 F1000.0
G92 E0.0
G1 X240.0 E25.0 F2200.0
G1 Y-2.0 F1000.0
M73 P1 R14
M73 Q1 S15
G1 X55.0 E25 F1400.0
G1 Z0.20 F1000.0
M73 P2 R14
M73 Q2 S15
G1 X5.0 E4.0 F1000.0
G92 E0.0


;M221 S100
G92 E0.0

; Don't change E values below. Excessive value can damage the printer.

G21 ; set units to millimeters
G90 ; use absolute coordinates
M83 ; use relative distances for extrusion
M900 K0
M107
;LAYER_CHANGE
;Z:0.15
;HEIGHT:0.15
;BEFORE_LAYER_CHANGE
G92 E0.0
;0.15


G1 E-.6 F1800
G1 Z.15 F10800
;AFTER_LAYER_CHANGE
;0.15
G1 X111.703 Y27.706
G1 E.6 F1800
M204 S500
;TYPE:Perimeter
;WIDTH:0.25
G1 X113.413 Y25.996 E.03284
G1 X136.587 Y25.996 E.31479
G1 X139.004 Y28.413 E.04642
G1 X139.004 Y31.587 E.04312
G1 X136.587 Y34.004 E.04642
G1 X113.413 Y34.004 E.31479
G1 X110.996 Y31.587 E.04642
G1 X110.996 Y28.413 E.04312
G1 X111.677 Y27.732 E.01307
M204 S800
G1 X111.309 Y27.792 F10800
M204 S500
G1 F1800
G1 X113.322 Y25.778 E.03868
G1 X136.678 Y25.778 E.31724
G1 X139.222 Y28.322 E.04887
G1 X139.222 Y31.678 E.04557
M73 P3 R14
G1 X136.678 Y34.222 E.04887
M73 Q3 S15
G1 X113.322 Y34.222 E.31724
G1 X110.778 Y31.678 E.04887
G1 X110.778 Y28.322 E.04557
G1 X111.282 Y27.819 E.00968
M204 S800
G1 X110.914 Y27.879 F10800
M204 S500
G1 F1800
G1 X113.232 Y25.561 E.04453
G1 X136.768 Y25.561 E.31969
G1 X139.439 Y28.232 E.05132
G1 X139.439 Y31.768 E.04802
G1 X136.768 Y34.439 E.05132
G1 X113.232 Y34.439 E.31969
G1 X110.561 Y31.768 E.05132
G1 X110.561 Y28.232 E.04802
G1 X110.888 Y27.905 E.00628
M204 S800
G1 X110.52 Y27.965 F10800
M204 S500
G1 F1800
G1 X113.142 Y25.343 E.05038
G1 X136.858 Y25.343 E.32214
G1 X139.657 Y28.142 E.05377
G1 X139.657 Y31.858 E.05048
G1 X136.858 Y34.657 E.05377
G1 X113.142 Y34.657 E.32214
G1 X110.343 Y31.858 E.05377
G1 X110.343 Y28.142 E.05048
G1 X110.493 Y27.992 E.00289
M204 S800
G1 X110.125 Y28.052 F10800
M204 S500
;TYPE:External perimeter
G1 F1800
G1 X113.052 Y25.125 E.05622
G1 X136.948 Y25.125 E.32459
G1 X139.875 Y28.052 E.05622
M73 Q3 S14
G1 X139.875 Y31.948 E.05293
G1 X136.948 Y34.875 E.05622
G1 X113.052 Y34.875 E.32459
G1 X110.125 Y31.948 E.05622
M73 P4 R14
G1 X110.125 Y28.089 E.05242
M204 S800
G1 X110.373 Y28.018 F10800
G1 E-.6 F1800
G1 X113.579 Y33.938 F10800
M73 Q4 S14
G1 E.6 F1800
M204 S500
;TYPE:Solid infill
;WIDTH:0.251592
G1 X111.16 Y31.519 E.04683
G1 X111.16 Y31.208 E.00425
G1 X113.792 Y33.84 E.05093
G1 X114.102 Y33.84 E.00425
G1 X111.16 Y30.898 E.05694
G1 X111.16 Y30.588 E.00425
G1 X114.412 Y33.84 E.06294
G1 X114.723 Y33.84 E.00425
G1 X111.16 Y30.277 E.06894
G1 X111.16 Y29.967 E.00425
G1 X115.033 Y33.84 E.07495
G1 X115.343 Y33.84 E.00425
G1 X111.16 Y29.657 E.08095
G1 X111.16 Y29.347 E.00425
G1 X115.653 Y33.84 E.08696
G1 X115.964 Y33.84 E.00425
G1 X111.16 Y29.036 E.09296
G1 X111.16 Y28.726 E.00425
G1 X116.274 Y33.84 E.09896
G1 X116.584 Y33.84 E.00425
G1 X111.192 Y28.448 E.10434
G1 X111.347 Y28.293 E.003
G1 X116.895 Y33.84 E.10735
G1 X117.205 Y33.84 E.00425
G1 X111.502 Y28.138 E.11035
G1 X111.657 Y27.983 E.003
G1 X117.515 Y33.84 E.11335
G1 X117.825 Y33.84 E.00425
G1 X111.812 Y27.827 E.11635
G1 X111.968 Y27.672 E.003
G1 X118.136 Y33.84 E.11935
G1 X118.446 Y33.84 E.00425
G1 X112.123 Y27.517 E.12235
G1 X112.278 Y27.362 E.003
G1 X118.756 Y33.84 E.12536
G1 X119.067 Y33.84 E.00425
G1 X112.433 Y27.207 E.12836
G1 X112.588 Y27.052 E.003
G1 X119.377 Y33.84 E.13136
G1 X119.687 Y33.84 E.00425
G1 X112.743 Y26.897 E.13436
G1 X112.898 Y26.741 E.003
G1 X119.997 Y33.84 E.13736
G1 X120.308 Y33.84 E.00425
G1 X113.054 Y26.586 E.14037
G1 X113.209 Y26.431 E.003
G1 X120.618 Y33.84 E.14337
G1 X120.928 Y33.84 E.00425
G1 X113.364 Y26.276 E.14637
G1 X113.48 Y26.16 E.00225
G1 X113.558 Y26.16 E.00106
G1 X121.239 Y33.84 E.14862
G1 X121.549 Y33.84 E.00425
G1 X113.868 Y26.16 E.14862
G1 X114.178 Y26.16 E.00425
M73 P5 R14
G1 X121.859 Y33.84 E.14862
G1 X122.169 Y33.84 E.00425
M73 Q5 S14
G1 X114.489 Y26.16 E.14862
G1 X114.799 Y26.16 E.00425
G1 X122.48 Y33.84 E.14862
G1 X122.79 Y33.84 E.00425
G1 X115.109 Y26.16 E.14862
G1 X115.419 Y26.16 E.00425
G1 X123.1 Y33.84 E.14862
G1 X123.41 Y33.84 E.00425
G1 X115.73 Y26.16 E.14862
G1 X116.04 Y26.16 E.00425
G1 X123.721 Y33.84 E.14862
G1 X124.031 Y33.84 E.00425
G1 X116.35 Y26.16 E.14862
G1 X116.66 Y26.16 E.00425
G1 X124.341 Y33.84 E.14862
G1 X124.652 Y33.84 E.00425
G1 X116.971 Y26.16 E.14862
G1 X117.281 Y26.16 E.00425
G1 X124.962 Y33.84 E.14862
G1 X125.272 Y33.84 E.00425
G1 X117.591 Y26.16 E.14862
G1 X117.902 Y26.16 E.00425
G1 X125.582 Y33.84 E.14862
G1 X125.893 Y33.84 E.00425
G1 X118.212 Y26.16 E.14862
G1 X118.522 Y26.16 E.00425
G1 X126.203 Y33.84 E.14862
G1 X126.513 Y33.84 E.00425
G1 X118.832 Y26.16 E.14862
G1 X119.143 Y26.16 E.00425
G1 X126.824 Y33.84 E.14862
G1 X127.134 Y33.84 E.00425
G1 X119.453 Y26.16 E.14862
G1 X119.763 Y26.16 E.00425
G1 X127.444 Y33.84 E.14862
G1 X127.754 Y33.84 E.00425
G1 X120.074 Y26.16 E.14862
G1 X120.384 Y26.16 E.00425
G1 X128.065 Y33.84 E.14862
G1 X128.375 Y33.84 E.00425
M73 P6 R14
G1 X120.694 Y26.16 E.14862
G1 X121.004 Y26.16 E.00425
G1 X128.685 Y33.84 E.14862
G1 X128.996 Y33.84 E.00425
M73 Q6 S14
G1 X121.315 Y26.16 E.14862
G1 X121.625 Y26.16 E.00425
G1 X129.306 Y33.84 E.14862
G1 X129.616 Y33.84 E.00425
G1 X121.935 Y26.16 E.14862
G1 X122.246 Y26.16 E.00425
G1 X129.926 Y33.84 E.14862
G1 X130.237 Y33.84 E.00425
G1 X122.556 Y26.16 E.14862
G1 X122.866 Y26.16 E.00425
G1 X130.547 Y33.84 E.14862
G1 X130.857 Y33.84 E.00425
G1 X123.176 Y26.16 E.14862
G1 X123.487 Y26.16 E.00425
G1 X131.168 Y33.84 E.14862
G1 X131.478 Y33.84 E.00425
G1 X123.797 Y26.16 E.14862
G1 X124.107 Y26.16 E.00425
G1 X131.788 Y33.84 E.14862
G1 X132.098 Y33.84 E.00425
G1 X124.418 Y26.16 E.14862
G1 X124.728 Y26.16 E.00425
G1 X132.409 Y33.84 E.14862
G1 X132.719 Y33.84 E.00425
G1 X125.038 Y26.16 E.14862
G1 X125.348 Y26.16 E.00425
G1 X133.029 Y33.84 E.14862
G1 X133.339 Y33.84 E.00425
G1 X125.659 Y26.16 E.14862
G1 X125.969 Y26.16 E.00425
G1 X133.65 Y33.84 E.14862
G1 X133.96 Y33.84 E.00425
G1 X126.279 Y26.16 E.14862
G1 X126.589 Y26.16 E.00425
G1 X134.27 Y33.84 E.14862
G1 X134.581 Y33.84 E.00425
G1 X126.9 Y26.16 E.14862
G1 X127.21 Y26.16 E.00425
M73 P7 R14
G1 X134.891 Y33.84 E.14862
G1 X135.201 Y33.84 E.00425
G1 X127.52 Y26.16 E.14862
G1 X127.831 Y26.16 E.00425
G1 X135.511 Y33.84 E.14862
G1 X135.822 Y33.84 E.00425
M73 Q7 S14
G1 X128.141 Y26.16 E.14862
G1 X128.451 Y26.16 E.00425
G1 X136.132 Y33.84 E.14862
G1 X136.442 Y33.84 E.00425
G1 X128.761 Y26.16 E.14862
G1 X129.072 Y26.16 E.00425
G1 X136.636 Y33.724 E.14637
G1 X136.791 Y33.569 E.003
G1 X129.382 Y26.16 E.14337
G1 X129.692 Y26.16 E.00425
G1 X136.946 Y33.414 E.14037
G1 X137.102 Y33.259 E.003
G1 X130.003 Y26.16 E.13737
G1 X130.313 Y26.16 E.00425
G1 X137.257 Y33.103 E.13436
G1 X137.412 Y32.948 E.003
G1 X130.623 Y26.16 E.13136
G1 X130.933 Y26.16 E.00425
M73 P7 R13
G1 X137.567 Y32.793 E.12836
G1 X137.722 Y32.638 E.003
G1 X131.244 Y26.16 E.12536
G1 X131.554 Y26.16 E.00425
G1 X137.877 Y32.483 E.12236
G1 X138.032 Y32.328 E.003
G1 X131.864 Y26.16 E.11935
G1 X132.175 Y26.16 E.00425
G1 X138.188 Y32.173 E.11635
G1 X138.343 Y32.017 E.003
G1 X132.485 Y26.16 E.11335
G1 X132.795 Y26.16 E.00425
G1 X138.498 Y31.862 E.11035
G1 X138.653 Y31.707 E.003
G1 X133.105 Y26.16 E.10735
G1 X133.416 Y26.16 E.00425
G1 X138.808 Y31.552 E.10434
G1 X138.84 Y31.52 E.00063
G1 X138.84 Y31.274 E.00336
G1 X133.726 Y26.16 E.09896
G1 X134.036 Y26.16 E.00425
G1 X138.84 Y30.964 E.09296
G1 X138.84 Y30.653 E.00425
G1 X134.347 Y26.16 E.08696
G1 X134.657 Y26.16 E.00425
G1 X138.84 Y30.343 E.08095
G1 X138.84 Y30.033 E.00425
M73 P8 R13
G1 X134.967 Y26.16 E.07495
G1 X135.277 Y26.16 E.00425
G1 X138.84 Y29.723 E.06895
G1 X138.84 Y29.412 E.00425
G1 X135.588 Y26.16 E.06294
G1 X135.898 Y26.16 E.00425
G1 X138.84 Y29.102 E.05694
G1 X138.84 Y28.792 E.00425
G1 X136.208 Y26.16 E.05093
G1 X136.518 Y26.16 E.00425
G1 X138.938 Y28.58 E.04683
M204 S800
M106 S255
;LAYER_CHANGE
;Z:0.22
;HEIGHT:0.07
;BEFORE_LAYER_CHANGE
G92 E0.0
;0.22


G1 E-.6 F1800
G1 Z.22 F10800
;AFTER_LAYER_CHANGE
;0.22
G1 X138.935 Y29.441
G1 E.6 F1800
M204 S500
;TYPE:Perimeter
;WIDTH:0.25
G1 F2100
M73 Q8 S14
G1 X138.935 Y31.559 E.01448
G1 X136.559 Y33.935 E.02298
G1 X113.441 Y33.935 E.15809
G1 X111.065 Y31.559 E.02298
G1 X111.065 Y28.441 E.02132
G1 X113.441 Y26.065 E.02298
G1 X136.559 Y26.065 E.15809
G1 X138.935 Y28.441 E.02298
G1 X138.935 Y29.404 E.00658
M204 S800
G1 X139.17 Y29.094 F10800
M204 S500
G1 F2100
G1 X139.17 Y31.656 E.01752
G1 X136.656 Y34.17 E.02431
G1 X113.344 Y34.17 E.15942
G1 X110.83 Y31.656 E.02431
G1 X110.83 Y28.344 E.02265
G1 X113.344 Y25.83 E.02431
G1 X136.656 Y25.83 E.15942
G1 X139.17 Y28.344 E.02431
G1 X139.17 Y29.056 E.00487
M204 S800
G1 X139.405 Y28.746 F10800
M204 S500
G1 F2100
G1 X139.405 Y31.754 E.02056
G1 X136.754 Y34.405 E.02564
G1 X113.246 Y34.405 E.16075
G1 X110.595 Y31.754 E.02564
G1 X110.595 Y28.246 E.02398
G1 X113.246 Y25.595 E.02564
G1 X136.754 Y25.595 E.16075
G1 X139.405 Y28.246 E.02564
G1 X139.405 Y28.709 E.00316
M204 S800
G1 X139.64 Y28.399 F10800
M204 S500
G1 F2100
G1 X139.64 Y31.851 E.0236
G1 X136.851 Y34.64 E.02697
G1 X113.149 Y34.64 E.16208
G1 X110.36 Y31.851 E.02697
M73 P9 R13
G1 X110.36 Y28.149 E.02531
G1 X113.149 Y25.36 E.02697
G1 X136.851 Y25.36 E.16208
G1 X139.64 Y28.149 E.02697
G1 X139.64 Y28.362 E.00145
M204 S800
G1 X139.875 Y28.052 F10800
M204 S500
;TYPE:External perimeter
G1 F1200
M73 Q9 S14
G1 X139.875 Y31.948 E.02665
G1 X136.948 Y34.875 E.02831
G1 X113.052 Y34.875 E.16342
G1 X110.125 Y31.948 E.02831
G1 X110.125 Y28.052 E.02665
G1 X113.052 Y25.125 E.02831
G1 X136.948 Y25.125 E.16342
G1 X139.848 Y28.025 E.02805
M204 S800
G1 X139.742 Y28.264 F10800
G1 E-.6 F1800
G1 X136.379 Y33.865 F10800
G1 E.6 F1800
;TYPE:Solid infill
;WIDTH:0.251916
G1 X138.759 Y31.484 E.02321
G1 X138.759 Y31.149 E.00231
G1 X136.149 Y33.759 E.02544
G1 X135.814 Y33.759 E.00231
G1 X138.759 Y30.814 E.02871
G1 X138.759 Y30.479 E.00231
G1 X135.479 Y33.759 E.03197
G1 X135.144 Y33.759 E.00231
G1 X138.759 Y30.144 E.03524
G1 X138.759 Y29.809 E.00231
G1 X134.809 Y33.759 E.03851
G1 X134.474 Y33.759 E.00231
G1 X138.759 Y29.474 E.04177
G1 X138.759 Y29.139 E.00231
G1 X134.139 Y33.759 E.04504
G1 X133.804 Y33.759 E.00231
G1 X138.759 Y28.804 E.04831
G1 X138.759 Y28.514 E.002
G1 X138.736 Y28.492 E.00022
G1 X133.469 Y33.759 E.05135
G1 X133.134 Y33.759 E.00231
G1 X138.569 Y28.324 E.05299
G1 X138.401 Y28.157 E.00163
G1 X132.799 Y33.759 E.05462
G1 X132.464 Y33.759 E.00231
G1 X138.234 Y27.989 E.05625
G1 X138.066 Y27.822 E.00163
G1 X132.129 Y33.759 E.05789
G1 X131.794 Y33.759 E.00231
M73 P10 R13
G1 X137.899 Y27.654 E.05952
G1 X137.731 Y27.487 E.00163
G1 X131.459 Y33.759 E.06115
G1 X131.124 Y33.759 E.00231
G1 X137.564 Y27.319 E.06279
G1 X137.396 Y27.152 E.00163
G1 X130.789 Y33.759 E.06442
G1 X130.454 Y33.759 E.00231
G1 X137.229 Y26.984 E.06605
G1 X137.061 Y26.817 E.00163
M73 Q10 S14
G1 X130.119 Y33.759 E.06769
G1 X129.784 Y33.759 E.00231
G1 X136.894 Y26.649 E.06932
G1 X136.726 Y26.482 E.00163
G1 X129.449 Y33.759 E.07095
G1 X129.114 Y33.759 E.00231
M73 Q10 S13
G1 X136.559 Y26.314 E.07259
G1 X136.486 Y26.241 E.00071
G1 X136.297 Y26.241 E.0013
G1 X128.779 Y33.759 E.0733
G1 X128.444 Y33.759 E.00231
G1 X135.962 Y26.241 E.0733
G1 X135.627 Y26.241 E.00231
G1 X128.109 Y33.759 E.0733
G1 X127.774 Y33.759 E.00231
G1 X135.292 Y26.241 E.0733
G1 X134.957 Y26.241 E.00231
G1 X127.439 Y33.759 E.0733
G1 X127.104 Y33.759 E.00231
G1 X134.622 Y26.241 E.0733
G1 X134.287 Y26.241 E.00231
G1 X126.769 Y33.759 E.0733
G1 X126.434 Y33.759 E.00231
G1 X133.952 Y26.241 E.0733
G1 X133.617 Y26.241 E.00231
G1 X126.099 Y33.759 E.0733
G1 X125.764 Y33.759 E.00231
G1 X133.282 Y26.241 E.0733
G1 X132.947 Y26.241 E.00231
G1 X125.429 Y33.759 E.0733
G1 X125.094 Y33.759 E.00231
G1 X132.612 Y26.241 E.0733
G1 X132.277 Y26.241 E.00231
G1 X124.759 Y33.759 E.0733
G1 X124.424 Y33.759 E.00231
G1 X131.942 Y26.241 E.0733
G1 X131.607 Y26.241 E.00231
M73 P11 R13
G1 X124.089 Y33.759 E.0733
G1 X123.754 Y33.759 E.00231
G1 X131.271 Y26.241 E.0733
G1 X130.936 Y26.241 E.00231
G1 X123.419 Y33.759 E.0733
G1 X123.084 Y33.759 E.00231
G1 X130.601 Y26.241 E.0733
G1 X130.266 Y26.241 E.00231
M73 Q11 S13
G1 X122.749 Y33.759 E.0733
G1 X122.414 Y33.759 E.00231
G1 X129.931 Y26.241 E.0733
G1 X129.596 Y26.241 E.00231
G1 X122.079 Y33.759 E.0733
G1 X121.744 Y33.759 E.00231
G1 X129.261 Y26.241 E.0733
G1 X128.926 Y26.241 E.00231
G1 X121.409 Y33.759 E.0733
G1 X121.074 Y33.759 E.00231
G1 X128.591 Y26.241 E.0733
G1 X128.256 Y26.241 E.00231
G1 X120.739 Y33.759 E.0733
G1 X120.404 Y33.759 E.00231
G1 X127.921 Y26.241 E.0733
G1 X127.586 Y26.241 E.00231
G1 X120.069 Y33.759 E.0733
G1 X119.734 Y33.759 E.00231
G1 X127.251 Y26.241 E.0733
G1 X126.916 Y26.241 E.00231
G1 X119.399 Y33.759 E.0733
G1 X119.063 Y33.759 E.00231
G1 X126.581 Y26.241 E.0733
G1 X126.246 Y26.241 E.00231
G1 X118.728 Y33.759 E.0733
G1 X118.393 Y33.759 E.00231
G1 X125.911 Y26.241 E.0733
G1 X125.576 Y26.241 E.00231
G1 X118.058 Y33.759 E.0733
G1 X117.723 Y33.759 E.00231
G1 X125.241 Y26.241 E.0733
G1 X124.906 Y26.241 E.00231
G1 X117.388 Y33.759 E.0733
G1 X117.053 Y33.759 E.00231
G1 X124.571 Y26.241 E.0733
G1 X124.236 Y26.241 E.00231
G1 X116.718 Y33.759 E.0733
G1 X116.383 Y33.759 E.00231
M73 P12 R13
G1 X123.901 Y26.241 E.0733
G1 X123.566 Y26.241 E.00231
G1 X116.048 Y33.759 E.0733
G1 X115.713 Y33.759 E.00231
G1 X123.231 Y26.241 E.0733
G1 X122.896 Y26.241 E.00231
G1 X115.378 Y33.759 E.0733
G1 X115.043 Y33.759 E.00231
M73 Q12 S13
G1 X122.561 Y26.241 E.0733
G1 X122.226 Y26.241 E.00231
G1 X114.708 Y33.759 E.0733
G1 X114.373 Y33.759 E.00231
G1 X121.891 Y26.241 E.0733
G1 X121.556 Y26.241 E.00231
G1 X114.038 Y33.759 E.0733
G1 X113.703 Y33.759 E.00231
G1 X121.221 Y26.241 E.0733
G1 X120.886 Y26.241 E.00231
G1 X113.441 Y33.686 E.07259
G1 X113.274 Y33.518 E.00163
G1 X120.551 Y26.241 E.07095
G1 X120.216 Y26.241 E.00231
G1 X113.106 Y33.351 E.06932
G1 X112.939 Y33.183 E.00163
G1 X119.881 Y26.241 E.06769
G1 X119.546 Y26.241 E.00231
G1 X112.771 Y33.016 E.06605
G1 X112.604 Y32.848 E.00163
G1 X119.211 Y26.241 E.06442
G1 X118.876 Y26.241 E.00231
G1 X112.436 Y32.681 E.06279
G1 X112.269 Y32.513 E.00163
G1 X118.541 Y26.241 E.06115
G1 X118.206 Y26.241 E.00231
G1 X112.101 Y32.346 E.05952
G1 X111.934 Y32.178 E.00163
G1 X117.871 Y26.241 E.05789
G1 X117.536 Y26.241 E.00231
G1 X111.766 Y32.011 E.05625
G1 X111.599 Y31.843 E.00163
G1 X117.201 Y26.241 E.05462
G1 X116.866 Y26.241 E.00231
G1 X111.431 Y31.676 E.05299
G1 X111.264 Y31.508 E.00163
G1 X116.531 Y26.241 E.05135
G1 X116.196 Y26.241 E.00231
