; generated by PrusaSlicer 2.4.0+win64 on 2022-05-07 at 21:36:11 UTC

; 

; external perimeters extrusion width = 0.25mm
; perimeters extrusion width = 0.25mm
; infill extrusion width = 0.40mm
; solid infill extrusion width = 0.25mm
; top infill extrusion width = 0.25mm
; support material extrusion width = 0.25mm
; first layer extrusion width = 0.25mm

M73 P0 R14
M73 Q0 S15
M201 X800 Y800 Z200 E4000 ; sets maximum accelerations, mm/sec^2
M203 X200 Y200 Z12 E120 ; sets maximum feedrates, mm/sec
M204 P800 R800 T800 ; sets acceleration (P, T) and retract acceleration (R), mm/sec^2
M205 X6.00 Y6.00 Z0.40 E4.50 ; sets the jerk limits, mm/sec
M205 S0 T0 ; sets the minimum extruding and travel feed rate, mm/sec
M107
;TYPE:Custom
M862.3 P "MK3SMMU2S" ; printer model check
M862.1 P0.25 ; nozzle diameter check
M115 U3.9.1 ; tell printer latest fw version
G90 ; use absolute coordinates
M83 ; extruder relative mode
M104 S215 ; set extruder temp
M140 S60 ; set bed temp
M190 S60 ; wait for bed temp
M109 S215 ; wait for extruder temp
G28 W ; home all without mesh bed level
G80 ; mesh bed leveling

;Skelestruder Code Start - Currently managed by custom Firmware
;M350 E16 ; 16 Microsteps instead of 32
;M92 E492 ; 492 steps/mm instead of 280  Flow Test result was 492
;M221 S95 ; Set flow to tested Stable 95%
;Skelestruder Code End

; Send the filament type to the MMU2.0 unit.
; E stands for extruder number, F stands for filament type (0: default; 1:flex; 2: PVA)
M403 E0 F0
M403 E1 F0
M403 E2 F0
M403 E3 F0
M403 E4 F0


;go outside print area
G1 Y-3.0 F1000.0
G1 Z0.4 F1000.0
; select extruder
T0
; initial load
G1 X55.0 E29.0 F1073.0
G1 X5.0 E29.0 F1800.0
G1 X55.0 E8.0 F2000.0
G1 Z0.3 F1000.0
G92 E0.0
G1 X240.0 E25.0 F2200.0
G1 Y-2.0 F1000.0
M73 P1 R14
M73 Q1 S15
G1 X55.0 E25 F1400.0
G1 Z0.20 F1000.0
M73 P2 R14
M73 Q2 S15
G1 X5.0 E4.0 F1000.0
G92 E0.0


;M221 S100
G92 E0.0

; Don't change E values below. Excessive value can damage the printer.

G21 ; set units to millimeters
G90 ; use absolute coordinates
M83 ; use relative distances for extrusion
M900 K0.21
M107
;LAYER_CHANGE
;Z:0.15
;HEIGHT:0.15
;BEFORE_LAYER_CHANGE
G92 E0.0
;0.15


G1 Z.15 F10800
;AFTER_LAYER_CHANGE
;0.15
G1 E-.12345 F1500
G1 X15.692 Y22.421 F10800
G1 E.12345 F1500
M204 S500
;TYPE:Skirt/Brim
;WIDTH:0.25
G1 F1800
G1 X16.483 Y21.893 E.01291
G1 X16.876 Y21.73 E.00578
G1 X17.808 Y21.544 E.01291
G1 X42.192 Y21.544 E.33122
G1 X43.124 Y21.73 E.01291
G1 X43.517 Y21.893 E.00578
G1 X44.308 Y22.421 E.01291
G1 X47.579 Y25.692 E.06285
G1 X48.107 Y26.483 E.01291
G1 X48.27 Y26.876 E.00578
G1 X48.456 Y27.808 E.01291
G1 X48.456 Y32.192 E.05955
G1 X48.27 Y33.124 E.01291
G1 X48.107 Y33.517 E.00578
G1 X47.579 Y34.308 E.01291
G1 X44.308 Y37.579 E.06285
G1 X43.517 Y38.107 E.01291
G1 X43.124 Y38.27 E.00578
G1 X42.192 Y38.456 E.01291
G1 X17.808 Y38.456 E.33122
G1 X16.876 Y38.27 E.01291
G1 X16.483 Y38.107 E.00578
G1 X15.692 Y37.579 E.01291
G1 X12.421 Y34.308 E.06285
G1 X11.893 Y33.517 E.01291
G1 X11.73 Y33.124 E.00578
G1 X11.544 Y32.192 E.01291
G1 X11.544 Y27.808 E.05955
G1 X11.73 Y26.876 E.01291
G1 X11.893 Y26.483 E.00578
G1 X12.421 Y25.692 E.01291
G1 X15.666 Y22.447 E.06234
M204 S800
G1 X15.82 Y22.601 F10800
M204 S500
G1 F1800
G1 X16.566 Y22.094 E.01225
G1 X16.959 Y21.931 E.00578
G1 X17.808 Y21.762 E.01175
G1 X42.192 Y21.762 E.33122
G1 X43.041 Y21.931 E.01175
M73 P3 R14
G1 X43.434 Y22.094 E.00578
G1 X44.154 Y22.575 E.01175
G1 X47.425 Y25.846 E.06285
G1 X47.906 Y26.566 E.01175
G1 X48.069 Y26.959 E.00578
G1 X48.238 Y27.808 E.01175
G1 X48.238 Y32.192 E.05955
G1 X48.069 Y33.041 E.01175
G1 X47.906 Y33.434 E.00578
G1 X47.425 Y34.154 E.01175
G1 X44.154 Y37.425 E.06285
G1 X43.434 Y37.906 E.01175
M73 Q3 S15
G1 X43.041 Y38.069 E.00578
G1 X42.192 Y38.238 E.01175
G1 X17.808 Y38.238 E.33122
G1 X16.959 Y38.069 E.01175
G1 X16.566 Y37.906 E.00578
G1 X15.846 Y37.425 E.01175
G1 X12.575 Y34.154 E.06285
G1 X12.094 Y33.434 E.01175
G1 X11.931 Y33.041 E.00578
G1 X11.762 Y32.192 E.01175
G1 X11.762 Y27.808 E.05955
G1 X11.931 Y26.959 E.01175
G1 X12.094 Y26.566 E.00578
G1 X12.575 Y25.846 E.01175
G1 X15.793 Y22.628 E.06183
M204 S800
G1 E-.12345 F1500
G1 X17.528 Y24.381 F10800
G1 E.12345 F1500
M204 S500
G1 F1800
G1 X17.781 Y24.248 E.00388
G1 X42.146 Y24.237 E.33095
G1 X42.497 Y24.39 E.0052
G1 X45.635 Y27.541 E.0604
G1 X45.771 Y27.896 E.00517
G1 X45.783 Y32.079 E.05681
G1 X45.668 Y32.398 E.0046
G1 X42.473 Y35.619 E.06163
G1 X42.22 Y35.752 E.00388
G1 X17.921 Y35.782 E.33006
G1 X17.529 Y35.62 E.00577
G1 X14.381 Y32.472 E.06046
G1 X14.248 Y32.218 E.00389
G1 X14.229 Y27.895 E.05872
G1 X14.314 Y27.622 E.00389
G1 X17.502 Y24.407 E.0615
M204 S800
G1 X17.656 Y24.561 F10800
M204 S500
G1 F1800
G1 X17.855 Y24.454 E.00307
G1 X42.084 Y24.446 E.3291
G1 X42.358 Y24.56 E.00404
G1 X45.464 Y27.678 E.05977
G1 X45.554 Y27.916 E.00346
G1 X45.565 Y32.058 E.05626
G1 X45.474 Y32.298 E.00348
G1 X42.331 Y35.452 E.06047
G1 X42.145 Y35.546 E.00283
G1 X17.942 Y35.565 E.32876
G1 X17.667 Y35.451 E.00404
G1 X14.548 Y32.331 E.05992
G1 X14.454 Y32.144 E.00284
G1 X14.446 Y27.914 E.05747
G1 X14.512 Y27.716 E.00283
G1 X17.63 Y24.588 E.05999
M204 S800
G1 X17.783 Y24.742 F10800
M204 S500
G1 F1800
G1 X17.925 Y24.662 E.00221
G1 X42.062 Y24.664 E.32786
G1 X42.219 Y24.729 E.00231
M73 P4 R14
G1 X45.293 Y27.814 E.05915
G1 X45.336 Y27.934 E.00174
G1 X45.347 Y32.036 E.05571
G1 X45.282 Y32.194 E.00232
G1 X42.192 Y35.283 E.05935
G1 X42.076 Y35.338 E.00175
G1 X17.964 Y35.347 E.32752
G1 X17.806 Y35.282 E.00231
M73 Q4 S15
G1 X14.716 Y32.192 E.05935
G1 X14.661 Y32.075 E.00175
G1 X14.664 Y27.934 E.05624
G1 X14.708 Y27.813 E.00174
G1 X17.757 Y24.768 E.05854
M204 S800
G1 X17.91 Y24.922 F10800
M204 S500
G1 F1800
G1 X17.985 Y24.871 E.00123
G1 X42.041 Y24.882 E.32675
G1 X42.081 Y24.898 E.00059
G1 X45.102 Y27.919 E.05803
G1 X45.118 Y27.959 E.00059
G1 X45.129 Y32.015 E.05509
G1 X45.112 Y32.055 E.00059
G1 X42.055 Y35.112 E.05873
G1 X42.015 Y35.129 E.00059
G1 X17.985 Y35.129 E.3264
G1 X17.945 Y35.112 E.00059
G1 X14.888 Y32.055 E.05873
G1 X14.871 Y32.015 E.00059
G1 X14.882 Y27.959 E.05509
G1 X14.898 Y27.919 E.00059
G1 X17.884 Y24.949 E.0572
M204 S800
G1 X18.072 Y25.175 F10800
M204 S500
;TYPE:External perimeter
G1 F1800
G1 X41.928 Y25.175 E.32403
G1 X44.825 Y28.072 E.05566
G1 X44.825 Y31.928 E.05236
G1 X41.928 Y34.825 E.05566
G1 X18.072 Y34.825 E.32403
G1 X15.175 Y31.928 E.05566
G1 X15.175 Y28.072 E.05236
G1 X18.046 Y25.202 E.05515
M204 S800
G1 X18.27 Y25.328 F10800
G1 E-.12345 F1500
G1 X42.056 Y25.611 F10800
G1 E.12345 F1500
M204 S500
;TYPE:Perimeter
G1 F1800
G1 X44.607 Y28.163 E.04902
G1 X44.607 Y31.837 E.04991
M73 Q4 S14
G1 X41.837 Y34.607 E.05321
G1 X18.163 Y34.607 E.32158
G1 X15.393 Y31.837 E.05321
M73 P5 R14
G1 X15.393 Y28.163 E.04991
G1 X18.163 Y25.393 E.05321
G1 X41.837 Y25.393 E.32158
G1 X42.029 Y25.585 E.00368
M204 S800
G1 X41.902 Y25.765 F10800
M204 S500
G1 F1800
G1 X44.389 Y28.253 E.04779
G1 X44.389 Y31.747 E.04746
G1 X41.747 Y34.389 E.05076
M73 Q5 S14
G1 X18.253 Y34.389 E.31913
G1 X15.611 Y31.747 E.05076
G1 X15.611 Y28.253 E.04746
G1 X18.253 Y25.611 E.05076
G1 X41.747 Y25.611 E.31913
G1 X41.875 Y25.739 E.00246
M204 S800
G1 X41.748 Y25.919 F10800
M204 S500
G1 F1800
G1 X44.172 Y28.343 E.04656
G1 X44.172 Y31.657 E.04501
G1 X41.657 Y34.172 E.04831
G1 X18.343 Y34.172 E.31668
G1 X15.828 Y31.657 E.04831
M73 P5 R13
G1 X15.828 Y28.343 E.04501
G1 X18.343 Y25.828 E.04831
G1 X41.657 Y25.828 E.31668
G1 X41.721 Y25.893 E.00123
M204 S800
G1 X41.594 Y26.073 F10800
M204 S500
G1 F1800
G1 X43.954 Y28.433 E.04534
G1 X43.954 Y31.567 E.04256
G1 X41.567 Y33.954 E.04586
G1 X18.433 Y33.954 E.31422
G1 X16.046 Y31.567 E.04586
G1 X16.046 Y28.433 E.04256
G1 X18.433 Y26.046 E.04586
G1 X41.567 Y26.047 E.31423
M204 S800
G1 E-.12345 F1500
M73 P6 R13
G1 X43.888 Y28.6 F10800
G1 E.12345 F1500
M204 S500
;TYPE:Solid infill
;WIDTH:0.250592
G1 F1800
G1 X41.498 Y26.21 E.04603
G1 X41.19 Y26.21 E.00421
G1 X43.79 Y28.81 E.0501
G1 X43.79 Y29.119 E.00421
G1 X40.881 Y26.21 E.05605
G1 X40.572 Y26.21 E.00421
G1 X43.79 Y29.428 E.06199
G1 X43.79 Y29.737 E.00421
G1 X40.263 Y26.21 E.06794
G1 X39.954 Y26.21 E.00421
G1 X43.79 Y30.046 E.07389
G1 X43.79 Y30.355 E.00421
G1 X39.645 Y26.21 E.07984
G1 X39.336 Y26.21 E.00421
G1 X43.79 Y30.664 E.08579
G1 X43.79 Y30.972 E.00421
M73 Q6 S14
G1 X39.028 Y26.21 E.09174
G1 X38.719 Y26.21 E.00421
G1 X43.79 Y31.281 E.09769
G1 X43.79 Y31.499 E.00296
G1 X43.745 Y31.545 E.00088
G1 X38.41 Y26.21 E.10276
G1 X38.101 Y26.21 E.00421
G1 X43.59 Y31.699 E.10574
G1 X43.436 Y31.853 E.00297
G1 X37.792 Y26.21 E.10871
G1 X37.483 Y26.21 E.00421
G1 X43.282 Y32.008 E.11169
G1 X43.127 Y32.162 E.00297
G1 X37.174 Y26.21 E.11466
G1 X36.865 Y26.21 E.00421
G1 X42.973 Y32.317 E.11764
G1 X42.818 Y32.471 E.00297
G1 X36.557 Y26.21 E.12061
G1 X36.248 Y26.21 E.00421
G1 X42.664 Y32.626 E.12358
G1 X42.509 Y32.78 E.00297
G1 X35.939 Y26.21 E.12656
G1 X35.63 Y26.21 E.00421
G1 X42.355 Y32.934 E.12953
G1 X42.2 Y33.089 E.00297
G1 X35.321 Y26.21 E.13251
G1 X35.012 Y26.21 E.00421
G1 X42.046 Y33.243 E.13548
G1 X41.892 Y33.398 E.00297
G1 X34.703 Y26.21 E.13846
G1 X34.395 Y26.21 E.00421
G1 X41.737 Y33.552 E.14143
G1 X41.583 Y33.707 E.00297
G1 X34.086 Y26.21 E.14441
G1 X33.777 Y26.21 E.00421
G1 X41.358 Y33.79 E.14602
G1 X41.049 Y33.79 E.00421
G1 X33.468 Y26.21 E.14602
G1 X33.159 Y26.21 E.00421
M73 P7 R13
G1 X40.74 Y33.79 E.14602
G1 X40.431 Y33.79 E.00421
G1 X32.85 Y26.21 E.14602
G1 X32.541 Y26.21 E.00421
G1 X40.122 Y33.79 E.14602
G1 X39.813 Y33.79 E.00421
G1 X32.232 Y26.21 E.14602
G1 X31.924 Y26.21 E.00421
G1 X39.504 Y33.79 E.14602
G1 X39.196 Y33.79 E.00421
G1 X31.615 Y26.21 E.14602
G1 X31.306 Y26.21 E.00421
M73 Q7 S14
G1 X38.887 Y33.79 E.14602
G1 X38.578 Y33.79 E.00421
G1 X30.997 Y26.21 E.14602
G1 X30.688 Y26.21 E.00421
G1 X38.269 Y33.79 E.14602
G1 X37.96 Y33.79 E.00421
G1 X30.379 Y26.21 E.14602
G1 X30.07 Y26.21 E.00421
G1 X37.651 Y33.79 E.14602
G1 X37.342 Y33.79 E.00421
G1 X29.762 Y26.21 E.14602
G1 X29.453 Y26.21 E.00421
G1 X37.034 Y33.79 E.14602
G1 X36.725 Y33.79 E.00421
G1 X29.144 Y26.21 E.14602
G1 X28.835 Y26.21 E.00421
G1 X36.416 Y33.79 E.14602
G1 X36.107 Y33.79 E.00421
G1 X28.526 Y26.21 E.14602
G1 X28.217 Y26.21 E.00421
G1 X35.798 Y33.79 E.14602
G1 X35.489 Y33.79 E.00421
G1 X27.908 Y26.21 E.14602
G1 X27.599 Y26.21 E.00421
G1 X35.18 Y33.79 E.14602
G1 X34.871 Y33.79 E.00421
G1 X27.291 Y26.21 E.14602
G1 X26.982 Y26.21 E.00421
G1 X34.563 Y33.79 E.14602
G1 X34.254 Y33.79 E.00421
M73 P8 R13
G1 X26.673 Y26.21 E.14602
G1 X26.364 Y26.21 E.00421
G1 X33.945 Y33.79 E.14602
G1 X33.636 Y33.79 E.00421
G1 X26.055 Y26.21 E.14602
G1 X25.746 Y26.21 E.00421
G1 X33.327 Y33.79 E.14602
G1 X33.018 Y33.79 E.00421
G1 X25.437 Y26.21 E.14602
G1 X25.129 Y26.21 E.00421
G1 X32.709 Y33.79 E.14602
G1 X32.401 Y33.79 E.00421
G1 X24.82 Y26.21 E.14602
G1 X24.511 Y26.21 E.00421
M73 Q8 S14
G1 X32.092 Y33.79 E.14602
G1 X31.783 Y33.79 E.00421
G1 X24.202 Y26.21 E.14602
G1 X23.893 Y26.21 E.00421
G1 X31.474 Y33.79 E.14602
G1 X31.165 Y33.79 E.00421
G1 X23.584 Y26.21 E.14602
G1 X23.275 Y26.21 E.00421
G1 X30.856 Y33.79 E.14602
G1 X30.547 Y33.79 E.00421
G1 X22.966 Y26.21 E.14602
G1 X22.658 Y26.21 E.00421
G1 X30.238 Y33.79 E.14602
G1 X29.93 Y33.79 E.00421
G1 X22.349 Y26.21 E.14602
G1 X22.04 Y26.21 E.00421
G1 X29.621 Y33.79 E.14602
G1 X29.312 Y33.79 E.00421
G1 X21.731 Y26.21 E.14602
G1 X21.422 Y26.21 E.00421
G1 X29.003 Y33.79 E.14602
G1 X28.694 Y33.79 E.00421
G1 X21.113 Y26.21 E.14602
G1 X20.804 Y26.21 E.00421
G1 X28.385 Y33.79 E.14602
G1 X28.076 Y33.79 E.00421
G1 X20.496 Y26.21 E.14602
G1 X20.187 Y26.21 E.00421
M73 P9 R13
G1 X27.767 Y33.79 E.14602
G1 X27.459 Y33.79 E.00421
G1 X19.878 Y26.21 E.14602
G1 X19.569 Y26.21 E.00421
G1 X27.15 Y33.79 E.14602
G1 X26.841 Y33.79 E.00421
G1 X19.26 Y26.21 E.14602
G1 X18.951 Y26.21 E.00421
G1 X26.532 Y33.79 E.14602
G1 X26.223 Y33.79 E.00421
G1 X18.642 Y26.21 E.14602
G1 X18.501 Y26.21 E.00192
G1 X18.417 Y26.293 E.00161
G1 X25.914 Y33.79 E.14441
G1 X25.605 Y33.79 E.00421
G1 X18.263 Y26.448 E.14143
G1 X18.108 Y26.602 E.00297
M73 Q9 S14
G1 X25.297 Y33.79 E.13846
G1 X24.988 Y33.79 E.00421
G1 X17.954 Y26.757 E.13548
G1 X17.8 Y26.911 E.00297
G1 X24.679 Y33.79 E.13251
G1 X24.37 Y33.79 E.00421
G1 X17.645 Y27.066 E.12953
G1 X17.491 Y27.22 E.00297
G1 X24.061 Y33.79 E.12656
G1 X23.752 Y33.79 E.00421
G1 X17.336 Y27.374 E.12358
G1 X17.182 Y27.529 E.00297
G1 X23.443 Y33.79 E.12061
G1 X23.134 Y33.79 E.00421
G1 X17.027 Y27.683 E.11763
G1 X16.873 Y27.838 E.00297
G1 X22.826 Y33.79 E.11466
G1 X22.517 Y33.79 E.00421
G1 X16.718 Y27.992 E.11169
G1 X16.564 Y28.147 E.00297
G1 X22.208 Y33.79 E.10871
G1 X21.899 Y33.79 E.00421
G1 X16.41 Y28.301 E.10574
G1 X16.255 Y28.455 E.00297
G1 X21.59 Y33.79 E.10276
G1 X21.281 Y33.79 E.00421
G1 X16.21 Y28.719 E.09769
G1 X16.21 Y29.028 E.00421
G1 X20.972 Y33.79 E.09174
G1 X20.664 Y33.79 E.00421
G1 X16.21 Y29.336 E.08579
G1 X16.21 Y29.645 E.00421
M73 P10 R13
G1 X20.355 Y33.79 E.07984
G1 X20.046 Y33.79 E.00421
G1 X16.21 Y29.954 E.07389
G1 X16.21 Y30.263 E.00421
G1 X19.737 Y33.79 E.06794
G1 X19.428 Y33.79 E.00421
G1 X16.21 Y30.572 E.06199
G1 X16.21 Y30.881 E.00421
G1 X19.119 Y33.79 E.05604
G1 X18.81 Y33.79 E.00421
G1 X16.21 Y31.19 E.0501
G1 X16.21 Y31.499 E.00421
G1 X18.599 Y33.888 E.04603
M204 S800
M106 S255
;LAYER_CHANGE
;Z:0.22
;HEIGHT:0.07
;BEFORE_LAYER_CHANGE
G92 E0.0
;0.22


G1 Z.22 F10800
;AFTER_LAYER_CHANGE
;0.22
M104 S210 ; set temperature
G1 E-.12345 F1500
G1 X18.599 Y38.456 F10800
G1 E.12345 F1500
;TYPE:Skirt/Brim
;WIDTH:0.25
G1 F1800
G1 X17.808 Y38.456 E.00541
G1 X16.876 Y38.27 E.0065
G1 X16.483 Y38.107 E.00291
G1 X15.692 Y37.579 E.0065
G1 X12.421 Y34.308 E.03164
G1 X11.893 Y33.517 E.0065
G1 X11.73 Y33.124 E.00291
G1 X11.544 Y32.192 E.0065
G1 X11.544 Y27.808 E.02998
G1 X11.73 Y26.876 E.0065
G1 X11.893 Y26.483 E.00291
G1 X12.421 Y25.692 E.0065
G1 X15.692 Y22.421 E.03164
G1 X16.483 Y21.893 E.0065
G1 X16.876 Y21.73 E.00291
G1 X17.808 Y21.544 E.0065
G1 X42.192 Y21.544 E.16675
G1 X43.124 Y21.73 E.0065
G1 X43.517 Y21.893 E.00291
G1 X44.308 Y22.421 E.0065
G1 X47.579 Y25.692 E.03164
M73 Q10 S14
G1 X48.107 Y26.483 E.0065
G1 X48.27 Y26.876 E.00291
G1 X48.456 Y27.808 E.0065
G1 X48.456 Y32.192 E.02998
G1 X48.27 Y33.124 E.0065
G1 X48.107 Y33.517 E.00291
G1 X47.579 Y34.308 E.0065
G1 X44.308 Y37.579 E.03164
G1 X43.517 Y38.107 E.0065
G1 X43.124 Y38.27 E.00291
G1 X42.192 Y38.456 E.0065
G1 X18.637 Y38.456 E.16108
G1 X18.637 Y38.238 F10800
G1 F1800
G1 X17.808 Y38.238 E.00567
G1 X16.959 Y38.069 E.00592
G1 X16.566 Y37.906 E.00291
G1 X15.846 Y37.425 E.00592
G1 X12.575 Y34.154 E.03164
G1 X12.094 Y33.434 E.00592
G1 X11.931 Y33.041 E.00291
G1 X11.762 Y32.192 E.00592
G1 X11.762 Y27.808 E.02998
G1 X11.931 Y26.959 E.00592
G1 X12.094 Y26.566 E.00291
G1 X12.575 Y25.846 E.00592
G1 X15.846 Y22.575 E.03164
G1 X16.566 Y22.094 E.00592
G1 X16.959 Y21.931 E.00291
G1 X17.808 Y21.762 E.00592
G1 X42.192 Y21.762 E.16675
G1 X43.041 Y21.931 E.00592
G1 X43.434 Y22.094 E.00291
G1 X44.154 Y22.575 E.00592
G1 X47.425 Y25.846 E.03164
G1 X47.906 Y26.566 E.00592
G1 X48.069 Y26.959 E.00291
G1 X48.238 Y27.808 E.00592
G1 X48.238 Y32.192 E.02998
G1 X48.069 Y33.041 E.00592
G1 X47.906 Y33.434 E.00291
G1 X47.425 Y34.154 E.00592
G1 X44.154 Y37.425 E.03164
G1 X43.434 Y37.906 E.00592
G1 X43.041 Y38.069 E.00291
G1 X42.192 Y38.238 E.00592
G1 X18.674 Y38.238 E.16082
G1 E-.12345 F1500
G1 X17.734 Y33.228 F10800
G1 E.12345 F1500
M204 S500
;TYPE:Perimeter
G1 F1680
G1 X16.065 Y31.559 E.01614
G1 X16.065 Y28.441 E.02132
G1 X18.441 Y26.065 E.02298
G1 X41.559 Y26.065 E.15809
G1 X43.935 Y28.441 E.02298
M73 P11 R13
G1 X43.935 Y31.559 E.02132
G1 X41.559 Y33.935 E.02298
G1 X18.441 Y33.935 E.15809
G1 X17.761 Y33.255 E.00658
M204 S800
G1 X17.813 Y33.64 F10800
M204 S500
G1 F1680
G1 X15.83 Y31.656 E.01918
G1 X15.83 Y28.344 E.02265
G1 X18.344 Y25.83 E.02431
G1 X41.656 Y25.83 E.15942
G1 X44.17 Y28.344 E.02431
G1 X44.17 Y31.656 E.02265
G1 X41.656 Y34.17 E.02431
G1 X18.344 Y34.17 E.15942
G1 X17.84 Y33.666 E.00487
M204 S800
M73 Q11 S13
G1 X17.893 Y34.051 F10800
M204 S500
G1 F1680
G1 X15.595 Y31.754 E.02222
G1 X15.595 Y28.246 E.02398
G1 X18.246 Y25.595 E.02564
